Quickit/src/img/work.svg

<svg width="390" height="337" viewBox="0 0 390 337" fill="none" xmlns="http://www.w3.org/2000/svg">
<path d="M360.026 225.727H245.491V334.861H360.026V225.727Z" fill="#1F2025" stroke="white" stroke-width="3" stroke-miterlimit="10"/>
<path d="M245.491 334.86H3.96875L186.65 100.476L269.279 137.146L245.491 334.86Z" fill="#205BF1" stroke="white" stroke-width="3" stroke-miterlimit="10"/>
<path d="M186.65 100.475C196.781 77.6506 223.475 67.365 246.3 77.4958C269.124 87.6266 279.41 114.321 269.279 137.145L186.65 100.475Z" fill="#1F2025" stroke="white" stroke-width="3" stroke-miterlimit="10" stroke-linecap="round" stroke-linejoin="round"/>
<path d="M241.742 70.0143L279.238 32.5527L288.766 42.3567L251.288 79.8011L241.742 70.0143Z" fill="#1F2025" stroke="white" stroke-width="3" stroke-miterlimit="10"/>
<path d="M374.078 106.375L287.562 32.5527L278.532 42.9071L364.739 116.42L374.078 106.375Z" fill="#1F2025" stroke="white" stroke-width="3" stroke-miterlimit="10"/>
<path d="M336.479 216.747L375.764 113.117L362.348 108.68L322.702 214.133L336.479 216.747Z" fill="#1F2025" stroke="white" stroke-width="3" stroke-miterlimit="10"/>
<path d="M387.924 225.725H278.532V224.848C278.532 216.575 285.24 209.85 293.531 209.85H372.943C381.216 209.85 387.942 216.558 387.942 224.848V225.725H387.924Z" fill="#1F2025" stroke="white" stroke-width="3" stroke-miterlimit="10"/>
<path d="M304.281 204.828H299.258V209.851H304.281V204.828Z" fill="#1F2025" stroke="white" stroke-width="3" stroke-miterlimit="10"/>
<path d="M366.906 126.757C375.664 126.757 382.764 119.657 382.764 110.898C382.764 102.14 375.664 95.04 366.906 95.04C358.148 95.04 351.048 102.14 351.048 110.898C351.048 119.657 358.148 126.757 366.906 126.757Z" fill="#1F2025" stroke="white" stroke-width="3" stroke-miterlimit="10"/>
<path d="M366.906 117.795C370.715 117.795 373.803 114.707 373.803 110.898C373.803 107.089 370.715 104.001 366.906 104.001C363.097 104.001 360.009 107.089 360.009 110.898C360.009 114.707 363.097 117.795 366.906 117.795Z" fill="white" stroke="white" stroke-width="3" stroke-miterlimit="10"/>
<path d="M283.4 53.8975C292.158 53.8975 299.258 46.7974 299.258 38.0391C299.258 29.2807 292.158 22.1807 283.4 22.1807C274.642 22.1807 267.542 29.2807 267.542 38.0391C267.542 46.7974 274.642 53.8975 283.4 53.8975Z" fill="#1F2025" stroke="white" stroke-width="3" stroke-miterlimit="10"/>
<path d="M283.4 44.936C287.209 44.936 290.297 41.848 290.297 38.0388C290.297 34.2296 287.209 31.1416 283.4 31.1416C279.591 31.1416 276.503 34.2296 276.503 38.0388C276.503 41.848 279.591 44.936 283.4 44.936Z" fill="white" stroke="white" stroke-width="3" stroke-miterlimit="10"/>
<path d="M247.142 90.1553C255.901 90.1553 263.001 83.0552 263.001 74.2969C263.001 65.5385 255.901 58.4385 247.142 58.4385C238.384 58.4385 231.284 65.5385 231.284 74.2969C231.284 83.0552 238.384 90.1553 247.142 90.1553Z" fill="#1F2025" stroke="white" stroke-width="3" stroke-miterlimit="10"/>
<path d="M247.142 81.1938C250.952 81.1938 254.04 78.1058 254.04 74.2966C254.04 70.4874 250.952 67.3994 247.142 67.3994C243.333 67.3994 240.245 70.4874 240.245 74.2966C240.245 78.1058 243.333 81.1938 247.142 81.1938Z" fill="white" stroke="white" stroke-width="3" stroke-miterlimit="10"/>
<path d="M352.682 205.773H313.775V209.85H352.682V205.773Z" fill="white" stroke="white" stroke-width="3" stroke-miterlimit="10"/>
<path d="M299.258 318.898H279.96V327.688H299.258V318.898Z" fill="#1F2025" stroke="#1F2025" stroke-width="3" stroke-miterlimit="10"/>
<path d="M60.9715 178.228L60.5052 177.022L60.0388 178.228L58.4158 182.425L54.2188 184.048L53.0129 184.514L54.2188 184.981L58.4158 186.604L60.0388 190.801L60.5061 192.009L60.9717 190.8L62.5946 186.587L66.7899 184.981L68.0035 184.517L66.7915 184.048L62.5946 182.425L60.9715 178.228Z" fill="white" stroke="white"/>
<path d="M77.3459 2.96028L76.8796 1.75439L76.4132 2.96028L74.7902 7.15724L70.5932 8.78028L69.3873 9.24663L70.5932 9.71297L74.7902 11.336L76.4132 15.533L76.8796 16.7389L77.3459 15.533L78.9689 11.336L83.1659 9.71297L84.3718 9.24663L83.1659 8.78028L78.9689 7.15724L77.3459 2.96028Z" fill="white" stroke="white"/>
<path d="M165.496 40.7835L165.027 39.5715L164.563 40.7851L162.957 44.9805L158.744 46.6033L157.535 47.069L158.743 47.5362L162.94 49.1593L164.563 53.3562L165.03 54.5621L165.496 53.3562L167.119 49.1593L171.316 47.5362L172.522 47.0699L171.316 46.6035L167.119 44.9805L165.496 40.7835Z" fill="white" stroke="white"/>
<path d="M314.242 136.967L313.773 135.749L313.308 136.968L311.702 141.18L307.489 142.803L306.274 143.271L307.49 143.737L311.686 145.343L313.309 149.555L313.775 150.767L314.242 149.555L315.865 145.343L320.06 143.737L321.274 143.272L320.062 142.803L315.865 141.18L314.242 136.967Z" fill="white" stroke="white"/>
<path d="M379.395 9.06734L378.929 7.85612L378.462 9.06734L376.839 13.2801L372.644 14.8861L371.43 15.3507L372.642 15.8194L376.839 17.4425L378.462 21.6394L378.929 22.8453L379.395 21.6394L381.018 17.4425L385.215 15.8194L386.427 15.3507L385.214 14.8861L381.018 13.2801L379.395 9.06734Z" fill="white" stroke="white"/>
<path d="M238.08 150.089L237.612 148.877L237.147 150.091L235.541 154.286L231.328 155.909L230.119 156.375L231.328 156.842L235.525 158.465L237.148 162.662L237.615 163.87L238.081 162.661L239.703 158.449L243.899 156.842L245.112 156.378L243.9 155.909L239.703 154.286L238.08 150.089Z" fill="#1F2025" stroke="#1F2025"/>
<path d="M171.496 161.3L171.027 160.088L170.563 161.302L168.957 165.497L164.744 167.12L163.535 167.586L164.743 168.053L168.94 169.676L170.563 173.873L171.03 175.079L171.496 173.873L173.119 169.676L177.316 168.053L178.522 167.586L177.316 167.12L173.119 165.497L171.496 161.3Z" fill="#1F2025" stroke="#1F2025"/>
<path d="M58.8664 302.49L58.4016 301.271L57.9326 302.488L56.3095 306.702L52.1129 308.325L50.9008 308.794L52.1145 309.258L56.3098 310.864L57.9326 315.077L58.4016 316.294L58.8664 315.075L60.4722 310.864L64.6834 309.258L65.9023 308.794L64.6849 308.325L60.4726 306.702L58.8664 302.49Z" fill="#1F2025" stroke="#1F2025"/>
<path d="M130.318 285.107L129.853 283.888L129.384 285.105L127.761 289.319L123.547 290.942L122.33 291.411L123.549 291.876L127.761 293.482L129.384 297.694L129.853 298.911L130.318 297.693L131.923 293.481L136.135 291.876L137.353 291.411L136.136 290.942L131.924 289.319L130.318 285.107Z" fill="#1F2025" stroke="#1F2025"/>
<path d="M162.381 215.207L167.558 228.692L181.06 233.886L167.558 239.081L162.381 252.565L157.169 239.081L143.684 233.886L157.186 228.692L162.381 215.207Z" stroke="#1F2025" stroke-width="3" stroke-miterlimit="10" stroke-linecap="round" stroke-linejoin="round"/>
</svg>

<svg xmlns="http://www.w3.org/2000/svg" width="390" height="337" fill="none" xmlns:v="https://vecta.io/nano"><style><![CDATA[.B{fill:#1f2025}.C{stroke-width:3}.D{stroke-miterlimit:10}.E{stroke:#1f2025}.F{stroke-linejoin:round}]]></style><g stroke="#fff" class="C D"><path d="M360.026 225.727H245.491V334.861H360.026V225.727Z" class="B"/><path d="M245.491 334.86H3.969L186.65 100.476l82.629 36.67-23.788 197.714z" fill="#205bf1"/><g class="B"><path d="M186.65 100.475c10.131-22.824 36.825-33.11 59.65-22.979s33.11 36.825 22.979 59.649l-82.629-36.67z" class="F"/><path d="M241.742 70.014l37.496-37.462 9.528 9.804-37.478 37.444-9.546-9.787z"/><path d="M374.078 106.375l-86.516-73.822-9.03 10.354 86.207 73.513 9.339-10.045z"/><path d="M336.479 216.747l39.285-103.63-13.416-4.437-39.646 105.453 13.777 2.614z"/><path d="M387.924 225.725H278.532v-.877c0-8.273 6.708-14.998 14.999-14.998h79.412c8.273 0 14.999 6.708 14.999 14.998v.877h-.018z"/><path d="M304.281 204.828h-5.023v5.023h5.023v-5.023zm62.625-78.071c8.758 0 15.858-7.1 15.858-15.859a15.86 15.86 0 0 0-15.858-15.858 15.86 15.86 0 0 0-15.858 15.858c0 8.759 7.1 15.859 15.858 15.859z"/></g><path d="M366.906 117.795a6.9 6.9 0 0 0 6.897-6.897 6.9 6.9 0 0 0-6.897-6.897 6.9 6.9 0 0 0-6.897 6.897 6.9 6.9 0 0 0 6.897 6.897z" fill="#fff"/><path d="M283.4 53.898a15.86 15.86 0 0 0 15.858-15.858A15.86 15.86 0 0 0 283.4 22.181a15.86 15.86 0 0 0-15.858 15.858A15.86 15.86 0 0 0 283.4 53.898z" class="B"/><path d="M283.4 44.936a6.9 6.9 0 0 0 6.897-6.897 6.9 6.9 0 0 0-6.897-6.897 6.9 6.9 0 0 0-6.897 6.897 6.9 6.9 0 0 0 6.897 6.897z" fill="#fff"/><path d="M247.142 90.155c8.759 0 15.859-7.1 15.859-15.858s-7.1-15.858-15.859-15.858a15.86 15.86 0 0 0-15.858 15.858 15.86 15.86 0 0 0 15.858 15.858z" class="B"/><path d="M247.142 81.194a6.9 6.9 0 0 0 6.898-6.897 6.9 6.9 0 0 0-6.898-6.897 6.9 6.9 0 0 0-6.897 6.897 6.9 6.9 0 0 0 6.897 6.897zm105.54 124.579h-38.907v4.077h38.907v-4.077z" fill="#fff"/></g><path d="M299.258 318.898H279.96v8.79h19.298v-8.79z" class="B C D E"/><path d="M60.972 178.228l-.466-1.206-.466 1.206-1.623 4.197-4.197 1.623-1.206.466 1.206.467 4.197 1.623 1.623 4.197.467 1.208.466-1.209 1.623-4.213 4.195-1.606 1.214-.464-1.212-.469-4.197-1.623-1.623-4.197zM77.346 2.96l-.466-1.206-.466 1.206-1.623 4.197-4.197 1.623-1.206.466 1.206.466 4.197 1.623 1.623 4.197.466 1.206.466-1.206 1.623-4.197 4.197-1.623 1.206-.466-1.206-.466-4.197-1.623-1.623-4.197zm88.15 37.824l-.469-1.212-.464 1.214-1.606 4.195-4.213 1.623-1.209.466 1.208.467 4.197 1.623 1.623 4.197.467 1.206.466-1.206 1.623-4.197 4.197-1.623 1.206-.466-1.206-.466-4.197-1.623-1.623-4.197zm148.746 96.183l-.469-1.218-.465 1.219-1.606 4.212-4.213 1.623-1.215.468 1.216.466 4.196 1.606 1.623 4.212.466 1.212.467-1.212 1.623-4.212 4.195-1.606 1.214-.465-1.212-.469-4.197-1.623-1.623-4.213zm65.153-127.9l-.466-1.211-.467 1.211-1.623 4.213-4.195 1.606-1.214.465 1.212.469 4.197 1.623 1.623 4.197.467 1.206.466-1.206 1.623-4.197 4.197-1.623 1.212-.469-1.213-.465-4.196-1.606-1.623-4.213z" stroke="#fff" fill="#fff"/><path d="M238.08 150.089l-.468-1.212-.465 1.214-1.606 4.195-4.213 1.623-1.209.466 1.209.467 4.197 1.623 1.623 4.197.467 1.208.466-1.209 1.622-4.212 4.196-1.607 1.213-.464-1.212-.469-4.197-1.623-1.623-4.197zM171.496 161.3l-.469-1.212-.464 1.214-1.606 4.195-4.213 1.623-1.209.466 1.208.467 4.197 1.623 1.623 4.197.467 1.206.466-1.206 1.623-4.197 4.197-1.623 1.206-.467-1.206-.466-4.197-1.623-1.623-4.197zM58.866 302.49l-.465-1.219-.469 1.217-1.623 4.214-4.197 1.623-1.212.469 1.214.464 4.195 1.606 1.623 4.213.469 1.217.465-1.219 1.606-4.211 4.211-1.606 1.219-.464-1.217-.469-4.212-1.623-1.606-4.212zm71.452-17.383l-.465-1.219-.469 1.217-1.623 4.214-4.214 1.623-1.217.469 1.219.465 4.212 1.606 1.623 4.212.469 1.217.465-1.218 1.605-4.212 4.212-1.605 1.218-.465-1.217-.469-4.212-1.623-1.606-4.212z" class="B E"/><path d="M162.381 215.207l5.177 13.485 13.502 5.194-13.502 5.195-5.177 13.484-5.212-13.484-13.485-5.195 13.502-5.194 5.195-13.485z" class="C D E F"/></svg>
